svg/fluentui-system-icons/ic_fluent_align_right_48_regular.svg

<svg width="48" height="48" viewBox="0 0 48 48" fill="none" xmlns="http://www.w3.org/2000/svg">
<path d="M41.5 5.25C41.5 4.55964 40.9404 4 40.25 4C39.5596 4 39 4.55964 39 5.25V42.75C39 43.4404 39.5596 44 40.25 44C40.9404 44 41.5 43.4404 41.5 42.75V5.25ZM32.25 26C34.5972 26 36.5 27.9028 36.5 30.25V35.75C36.5 38.0972 34.5972 40 32.25 40H17.25C14.9028 40 13 38.0972 13 35.75V30.25C13 27.9028 14.9028 26 17.25 26L32.25 26ZM34 30.25C34 29.2835 33.2165 28.5 32.25 28.5L17.25 28.5C16.2835 28.5 15.5 29.2835 15.5 30.25V35.75C15.5 36.7165 16.2835 37.5 17.25 37.5H32.25C33.2165 37.5 34 36.7165 34 35.75V30.25ZM36.5 12.25V17.75C36.5 20.0972 34.5972 22 32.25 22H10C7.65279 22 5.75 20.0972 5.75 17.75V12.25C5.75 9.90279 7.65279 8 10 8L32.25 8C34.5972 8 36.5 9.90279 36.5 12.25ZM34 17.75V12.25C34 11.2835 33.2165 10.5 32.25 10.5L10 10.5C9.0335 10.5 8.25 11.2835 8.25 12.25V17.75C8.25 18.7165 9.0335 19.5 10 19.5H32.25C33.2165 19.5 34 18.7165 34 17.75Z" fill="#212121"/>
</svg>

<svg xmlns="http://www.w3.org/2000/svg" width="48" height="48"><path d="M41.5 5.25a1.25 1.25 0 1 0-2.5 0v37.5a1.25 1.25 0 1 0 2.5 0V5.25ZM32.25 26a4.25 4.25 0 0 1 4.25 4.25v5.5A4.25 4.25 0 0 1 32.25 40h-15A4.25 4.25 0 0 1 13 35.75v-5.5A4.25 4.25 0 0 1 17.25 26h15ZM34 30.25a1.75 1.75 0 0 0-1.75-1.75h-15a1.75 1.75 0 0 0-1.75 1.75v5.5c0 .967.784 1.75 1.75 1.75h15A1.75 1.75 0 0 0 34 35.75v-5.5Zm2.5-18v5.5A4.25 4.25 0 0 1 32.25 22H10a4.25 4.25 0 0 1-4.25-4.25v-5.5A4.25 4.25 0 0 1 10 8h22.25a4.25 4.25 0 0 1 4.25 4.25Zm-2.5 5.5v-5.5a1.75 1.75 0 0 0-1.75-1.75H10a1.75 1.75 0 0 0-1.75 1.75v5.5c0 .966.784 1.75 1.75 1.75h22.25A1.75 1.75 0 0 0 34 17.75Z"/></svg>
